frontend/public/svg/finance/dollar.svg

<svg width="88" height="153" viewBox="0 0 88 153" fill="none" xmlns="http://www.w3.org/2000/svg">
<g clip-path="url(#clip0)">
<path d="M56.1857 123.391C64.0578 121.263 73.0487 118.433 80.1378 111.747C85.2395 106.934 87.6706 100.404 86.8068 93.8294C85.947 87.291 81.9355 81.6425 75.8 78.3326C72.6693 76.68 69.3095 75.5058 65.8312 74.8488C61.9621 74.0999 58.0097 73.6424 54.1872 73.1987C52.7727 73.0353 51.3649 72.8706 49.9715 72.696V25.757C56.4962 25.3383 61.8939 26.0976 66.9093 28.1369C70.6806 29.6694 72.3247 31.6725 72.4094 34.8315C72.4678 35.3076 72.6772 35.7523 73.008 36.1001C73.111 36.229 73.2082 36.3633 73.2974 36.5024C73.3539 36.5943 73.432 36.6713 73.5245 36.7268C73.6171 36.7823 73.7214 36.8147 73.829 36.8215C73.9367 36.8274 74.0443 36.8079 74.1434 36.7644C74.2419 36.721 74.3285 36.6548 74.3968 36.5713C74.994 35.8416 75.4338 34.9965 75.6885 34.0889C75.9438 33.1814 76.0088 32.231 75.8794 31.2971C75.7416 30.3365 75.4069 29.4147 74.8963 28.5894C74.3856 27.7641 73.7103 27.0529 72.9121 26.5005C70.4358 24.6407 67.6299 23.2661 64.6426 22.4491C61.1989 21.6752 57.7168 21.0837 54.2108 20.6769C52.9802 20.5122 51.758 20.3488 50.5517 20.1716V17.5186C50.5471 14.8933 50.5426 12.2166 50.5642 9.5381C50.5701 8.80432 50.6121 8.04763 50.6515 7.31581C50.7649 5.9068 50.7671 4.49112 50.658 3.08179C50.5471 2.02115 49.1977 0.136735 48.0734 0.240436C47.3958 0.336082 46.751 0.593043 46.1935 0.98971C45.6359 1.38638 45.1817 1.91125 44.8692 2.51999C44.4163 3.87428 44.1652 5.28778 44.1242 6.7152C44.0999 7.03286 44.075 7.35053 44.0454 7.66492C43.7422 10.9099 43.4678 14.1575 43.1922 17.4445L42.8961 20.9282L42.0036 21.1002C41.0558 21.2846 40.1658 21.4573 39.2791 21.6253C27.3292 23.8385 18.8532 28.0456 12.6049 34.8662C7.00104 40.9833 4.65137 48.9053 6.16029 56.6002C7.64821 64.1895 12.7171 70.536 20.0668 74.0146C23.5907 75.5602 27.2521 76.7712 31.0027 77.631C33.3392 78.2355 35.7565 78.6155 38.0951 78.985C38.9437 79.1163 39.793 79.2521 40.6384 79.3965V116.48C29.4445 116.057 16.306 114.859 3.1188 109.578C3.01009 109.534 2.89187 109.519 2.77581 109.535C2.65975 109.551 2.54992 109.597 2.45725 109.669C2.1706 109.875 1.93089 110.139 1.75404 110.445C1.5772 110.75 1.46726 111.09 1.4314 111.441C1.43029 111.984 1.53817 112.521 1.74868 113.02C1.95918 113.52 2.26798 113.972 2.65675 114.35C3.82413 115.642 5.15656 116.774 6.61969 117.717C11.7936 121.032 17.7571 123.126 24.8515 124.119C28.6641 124.653 32.4439 125.034 36.4456 125.439C38.0287 125.599 39.6329 125.762 41.2639 125.936C41.2639 126.177 41.2639 126.418 41.2593 126.658C41.2534 127.627 41.2468 128.628 41.2704 129.623C41.4155 135.549 41.5756 141.896 41.7633 148.135C41.8073 149.572 41.8887 152.249 44.8711 152.528C45.0332 152.544 45.1914 152.551 45.3469 152.551C47.3744 152.551 48.8413 151.264 49.4077 148.959C49.8753 147.177 50.1396 145.348 50.1953 143.507C50.2609 138.97 50.2511 134.49 50.2399 129.746C50.236 128.118 50.2331 126.47 50.2314 124.8C50.8041 124.669 51.3636 124.542 51.9097 124.419C53.3884 124.084 54.7916 123.766 56.1857 123.391ZM75.613 103.944C73.7477 105.791 71.6375 107.372 69.343 108.646C63.1344 112.166 56.3419 113.909 49.8711 115.222V80.2143L50.3961 80.2537C57.2063 80.7394 63.6378 81.1988 69.8241 83.6214C73.4162 85.0279 75.9156 87.1663 77.4658 90.1605C80.0439 95.129 79.3679 100.153 75.6149 103.944H75.613ZM42.4984 26.3129L41.0066 72.0501C34.6664 71.4772 28.0229 70.4835 22.0529 67.4617C17.0804 64.945 13.6478 60.8191 12.3863 55.8441C11.1058 50.7902 12.1894 45.424 15.4448 40.7286C20.7448 33.0783 28.781 29.8808 35.9429 27.7621C37.4112 27.327 38.9076 27.031 40.641 26.687C41.2376 26.5689 41.8552 26.4467 42.4997 26.3129H42.4984Z" fill="black"/>
</g>
<defs>
<clipPath id="clip0">
<rect width="86.6366" height="152.927" fill="white" transform="translate(0.844238 0.046875)"/>
</clipPath>
</defs>
</svg>

<svg xmlns="http://www.w3.org/2000/svg" width="88" height="153" fill="none" viewBox="0 0 88 153"><g clip-path="url(#a)"><path fill="#000" d="M56.186 123.391c7.872-2.128 16.863-4.958 23.952-11.644 5.102-4.813 7.533-11.343 6.669-17.918-.86-6.538-4.871-12.186-11.007-15.496a35.5 35.5 0 0 0-9.969-3.484c-3.869-.75-7.821-1.207-11.644-1.65a441 441 0 0 1-4.215-.503V25.757c6.524-.419 11.922.34 16.937 2.38 3.772 1.532 5.416 3.535 5.5 6.694.059.477.268.921.599 1.27q.155.192.29.401a.673.673 0 0 0 1.099.07 6.84 6.84 0 0 0 1.482-5.275 7.05 7.05 0 0 0-2.967-4.797 24.6 24.6 0 0 0-8.27-4.05 100 100 0 0 0-10.431-1.773c-1.23-.165-2.453-.328-3.66-.505v-2.653c-.004-2.626-.008-5.302.013-7.98.006-.735.048-1.491.087-2.223.114-1.41.116-2.825.007-4.234-.11-1.06-1.46-2.945-2.585-2.842a4.27 4.27 0 0 0-3.204 2.28 14.5 14.5 0 0 0-.745 4.195q-.035.478-.079.95c-.303 3.245-.577 6.493-.853 9.78l-.296 3.483-.892.172c-.948.185-1.838.357-2.725.525-11.95 2.214-20.426 6.42-26.674 13.241C7 40.983 4.65 48.906 6.16 56.6c1.488 7.59 6.557 13.936 13.907 17.415a61.4 61.4 0 0 0 10.936 3.616c2.336.605 4.754.984 7.092 1.354q1.274.195 2.543.412v37.083c-11.193-.423-24.332-1.621-37.52-6.902a.67.67 0 0 0-.66.091 2.5 2.5 0 0 0-1.027 1.772 4.04 4.04 0 0 0 1.226 2.909 19.8 19.8 0 0 0 3.963 3.367c5.174 3.315 11.137 5.409 18.232 6.402 3.812.534 7.592.915 11.594 1.32 1.583.16 3.187.323 4.818.497q.001.362-.005.722c-.006.969-.012 1.97.011 2.965.145 5.926.306 12.273.493 18.512.044 1.437.126 4.114 3.108 4.393q.242.023.476.023c2.027 0 3.494-1.287 4.06-3.592.468-1.782.733-3.611.788-5.452.066-4.537.056-9.017.045-13.761l-.009-4.946 1.679-.381c1.478-.335 2.882-.653 4.276-1.028m19.427-19.447a28.7 28.7 0 0 1-6.27 4.702c-6.209 3.52-13.001 5.263-19.472 6.576V80.214l.525.04c6.81.485 13.242.945 19.428 3.367 3.592 1.407 6.092 3.545 7.642 6.54 2.578 4.968 1.902 9.992-1.851 13.783zM42.498 26.313 41.007 72.05c-6.34-.573-12.984-1.566-18.954-4.588-4.973-2.517-8.405-6.643-9.667-11.618-1.28-5.054-.197-10.42 3.059-15.115 5.3-7.65 13.336-10.848 20.498-12.967 1.468-.435 2.965-.731 4.698-1.075.597-.118 1.214-.24 1.859-.374z"/></g><defs><clipPath id="a"><path fill="#fff" d="M.844.047h86.637v152.927H.844z"/></clipPath></defs></svg>
